X:1
T:L'immens'e alte virtute
T:L'immens'e alte virtute
T:Jhan Gero
T:Source : Trium vocum cantiones---Nürnberg---J.Petreius---1541. Editor : André Vierendeels (27/09/16).
T:Notes : Original clefs : C3, C4, F4 Editorial accidentals above the staff Original note values have been halved Square bracket indicates ligature
T:©
T:©
T:©
T:©
T:©
T:©
C:Jhan Gero
Z:©
%%score [ 1 2 3 ]
L:1/8
Q:1/4=120
M:2/2
K:F
V:1 treble-8 nm="Tenor 1" snm="T 1"
V:2 treble-8 nm="Tenor 2" snm="T 2"
V:3 bass nm="Bass" snm="B"
V:1
 A4 d4- | d2 c2 f4 | e4 f4 | g3 f/e/ fgaf | gf e3 d d2- | d2 c2 d4- | d4 z4 | f4 f2 e2 | d2 d2 c4 | %9
w: L'im- mens'|_ e al-|te vir-|tu- * * * * * *||* * te,|_|ch'in voi don-|na gen- til|
 d4 c2 A2 | B4 A4- | A8 | f4 f2 e2 | d2 d2 c4 | d4 c2 A2 | B4 A4- | A8 | f4 f2 f2 | d2 d2 g3 f | %19
w: ri- splend' ogn-|ho- ra,|_|di voi mi|speng' a dir'|e m'in- na-|mo- ra,|_|e se lau-|ra che spi- ra|
 e2 d3 c c2- | c2 B2 c4 | c4 f3 e | d2 d2 e4 | c4 z2 A2 | d2 c2 d2 e2 | f2 e2 d2 g2- | gf f4 e2 | %27
w: si so- * a-|* * ve,|tal' hor nel|ver- de lau-|ro, ver|me spie- gas- se|quel- lo frond' or-|* * na- *|
 f8- | f4 z4 | f4 f2 f2 | e2 e2 d2 f2 | e2 d4 c2 | d8- | d8 | z8 | d4 d2 d2 | fg a3 g g2- | %37
w: te,|_|ch'io po- tres-|s'ap- pres- sar- m'al|gran the- so-|ro,|_||in stil piu|_ _ alt' e gra-|
 g2 f2 g4- | g4 z2 g2 | g3 f e2 d2- | dc c4 B2 | c2 e2 f2 g2- | gf f4 e2 | f4 z2 f2 | %44
w: * * ve,|_ can-|te- * rei vo-|* stre lo- *|de tant' or- na-||te, et|
 f2 f2 e2 d2- | d2 c2 d3 c/B/ | c4 A4 | z2 A2 d2 c2 | d2 e2 f2 e2 | d2 c2 B2 A2 | G4 FGAB | %51
w: fra noi ce- le-|bra- * * * *|* te,|et di- rei|sem- pr'a tut- t'i|giorn' e l'ho- *||
 c4 F2 f2- | f2 e2 f4 | z2 c2 f3 e | d2 c2 d2 f2 | e2 d4 c2 | d8 |] %57
w: |* * re|che tra bel|fio- ri set' il|piu bel fio-|re.|
V:2
 z8 | A,4 D4- | D2 C2 F4 | E4 A4 | G6 F2 | E4 D4 | z2 A2 A2 G2 | A2 B2 G4 | F3 E/D/ E2 A2- | %9
w: |L'im- mens'|_ e al-|te vir-|tu- *|* te,|ch'in voi don-|na gen- til|ri- * * splend' ogn'|
 AG G4 F2- | F2 E2 F4 | z2 A2 A2 G2 | A2 B2 G4 | F3 E/D/ E2 A2- | AG G3 F F2- | F2 E2 F4 | %16
w: _ _ ho- *|* * ra,|di voi mi|speng' a dir'|e _ _ _ m'in-|* * na- * mo-|* * ra,|
 z2 c2 c2 c2 | A2 A2 d3 c | B2 A2 GF E2- | ED F3 EDC | D4 C4 | z4 F4 | B3 A G2 G2 | A4 F4 | %24
w: e se lau-|ra che spi- *|* ra _ _ si|_ so- a- * * *|* ve,|tal'|hor nel ver- de|lau- ro,|
 z2 A,2 D2 C2 | D2 E2 F2 G2 | B3 A G4 | F8 | c4 c2 c2 | B2 B2 A4 | c4 B3 A | G2 F2 E4 | D4 z2 D2 | %33
w: ver me spie-|gas- sequel- le frond'|or- * na-|te,|ch'io po- tess'|ap- pres- sarm'|al gran the-|so- * *|ro, in|
 D2 D2 FG A2- |"^#" AG G4 F2 | G4 z2 d2 | d2 d2 c2 B2 | A4 G4- | G4 z4 | G4 G3 F | E2 DC D4 | %41
w: stil piu alt' _ e|_ _ gra- *|ve, in|stil piu alt' e|gra- ve,|_|cau- te- rei|vo- stre _ lo-|
 C4 c4 | B2 A2 G4 | F4 A4 | A2 A2 G2 F2 | E4 DEFD | E4 z2 A,2 | D2 C2 D2 E2 | F2 E2 D2 C2 | %49
w: de tant'|or- na- *|te, et|fra voi ce- le|bra- * * * *|te, et|di- rei sem- pr'a|tut- t'i giorn' e|
 D2 G3 F F2- | F2 E2 F4 | z2 A2 c3 B | A2 G2 A3 G | F2 E2 F2 DE | FGAF B2 A2 | G3 F E4 | D8 |] %57
w: l'ho- * * *|* * re,|che tra beil|fio- ri set' il|piu bel _ _ _|_ _ _ _ _ _|fio- * *|re.|
V:3
"^#" z8 | z8 | A,,4 D,4- | D,2 C,2 F,4 | E,2 C,4 D,2 | A,,4 D,4 | F,4 F,2 E,2 | D,2 D,2 C,4 | %8
w: ||L'im- mens'|_ e al-|te vir- tu-|* te,|ch'in voi don-|na gen- til|
 D,3 C,/B,,/ A,,B,,C,A,, | B,,4 A,,2 F,,2 | G,,4 F,,4 | F,4 F,2 E,2 | D,2 D,2 C,4 | %13
w: ri- * * splend'- * * *|ogn' ho- *|* ra,|di voi mi|speng' a dir'|
 D,3 C,/B,,/ A,,B,,C,A,, | B,,4 A,,2 F,,2 | G,,4 F,,4- | F,,4 F,4 | F,2 F,2 D,2 D,2 | %18
w: e _ _ m'in- * * *|* na- *|mo- ra,|_ e|se lau- ra che|
 G,3 F, E,2 D,2 | C,2 B,,2 A,,4 | G,,4 z2 C,2 | F,3 E, D,2 D,2 | G,4 C,4 | z2 A,,2 D,3 C, | %24
w: spi- * * ra|si so- a-|ve, tal'|hor nel ver- de|lau- ro,|ver me spie-|
 D,2 E,2 F,2 E,2 | D,2 C,2 D,2 C,2 | B,,4 C,4 |"^#" F,,4 F,4 | F,2 F,2 E,2 E,2 | D,8 | A,,4 B,,4 | %31
w: gas- se quel- le|frond' or- na- *||te, ch'io|po- tess' ap- pres-|sarm'|al gran|
 C,2 D,2 A,,4 | D,8 | z2 D,2 D,2 D,2 | C,2 B,,2 A,,4 | G,,6 G,,2 | D,3 E, F,2 G,2 | D,4 G,,4 | %38
w: the- * so-|ro,|in stil piu|alt' e gra-|ve, in|stil piu alt' e|gra- ve,|
 z2 G,2 G,3 F, | E,2 D,2 C,2 B,,2 |"^-natural" C,2 A,,2 G,,4 | G,4 F,2 C,2 | _E,2 F,2 C,4 | %43
w: cau- te- rei|vo- stre lo- *||de tant' or-|na- * te,|
 D,4 D,4- | D,2 A,,2 C,2 D,2 | A,,4 B,,4 | z2 A,,2 D,2 C,2 | D,2 E,2 F,2 E,2 | D,2 C,2 D,2 A,,2 | %49
w: et fra|_ voi ce- le|bra- te,|et di- rei-|sem- pr'a tut- t'i|giorn' e l'ho- re,|
 z2 C,2 G,,2 A,,2 | B,,2 C,2 F,,4- |"^#" F,,8 | C,4 F,3 E, | D,2 C,2 D,3 C, | B,,2 A,,2 G,,2 F,,2 | %55
w: i giorn' e|l'ho- * re|_|che tra bei|fio- ri set' il|piu bel fi- o-|
 G,,4 A,,4 | D,8 |] %57
w: |re.|

